icon/lg/flowxo.svg

<?xml version="1.0" encoding="UTF-8" standalone="no"?>
<svg viewBox="0 0 256 182" version="1.1" xmlns="http://www.w3.org/2000/svg" xmlns:xlink="http://www.w3.org/1999/xlink" preserveAspectRatio="xMidYMid" height="1em" width="1em">
  <g>
    <path d="M37.6004,90.7871779 L36.578,90.9061259 L6.224,60.5531259 L6.223,60.5531259 C2.076,56.4051259 0.001,50.9691259 0,45.5321259 C0,40.0961259 2.073,34.6601259 6.221,30.5111259 C14.517,22.2161259 27.966,22.2161259 36.263,30.5121259 L66.618,60.8671259 L66.399,62.4161259 L38.426,90.6911259 L66.4996,118.865726 L66.6186,120.946726 L36.5306,151.033726 C28.2336,159.330726 14.7856,159.332726 6.4876,151.035726 C-1.8074,142.739726 -1.8074,129.290726 6.4906,120.993726 L36.5776,90.9067259 L37.6004,90.7871779 Z" fill="#1DB2CA"/>
    <path d="M127.9533,122.204005 L96.6573,90.9090055 L127.3023,60.2640055 C128.3243,59.0010055 129.4043,57.7890055 130.5453,56.6350055 C139.3333,45.3350055 137.8553,36.0350055 130.3763,28.5570055 C126.2333,24.4140055 120.4293,21.7150055 115.0003,21.7100055 C115.0003,21.7100055 106.3333,21.6690055 99.4273,28.1450055 C99.0563,28.4930055 98.6643,28.8220055 98.2993,29.1870055 L66.6173,60.8690055 L36.5773,90.9090055 L66.6173,120.949005 L98.0333,152.364005 C98.6273,152.958005 99.2543,153.500005 99.8943,154.014005 C110.6663,162.669005 123.2983,161.703005 131.0003,154.002005 C138.7023,146.298005 138.3333,134.335005 129.7213,124.182005 C129.1143,123.538005 128.5243,122.880005 127.9533,122.204005" fill="#2A3645"/>
    <path d="M165.1613,0 C141.9893,0 120.8483,8.681 104.8003,22.962 L104.8003,22.962 C102.9403,24.617 101.1453,26.343 99.4273,28.143 C103.4023,24.699 108.3473,22.968 113.2983,22.962 L113.3413,22.962 C118.7703,22.968 124.1983,25.041 128.3413,29.184 C135.8193,36.662 136.5523,48.328 130.5453,56.633 C131.8323,55.33 133.1943,54.103 134.6203,52.951 C142.9803,46.2 153.6033,42.145 165.1613,42.145 C192.0113,42.145 213.8553,63.989 213.8553,90.839 C213.8553,117.689 192.0113,139.533 165.1613,139.533 C153.6033,139.533 142.9803,135.478 134.6203,128.726 C132.8843,127.324 131.2493,125.803 129.7213,124.18 C136.3223,132.518 135.7783,144.66 128.0753,152.363 C120.3743,160.065 108.2323,160.611 99.8943,154.012 C101.4243,155.593 103.0123,157.118 104.6543,158.585 C104.6763,158.605 104.6983,158.625 104.7203,158.644 C120.7783,172.968 141.9513,181.677 165.1613,181.677 C215.3303,181.677 256.0003,141.008 256.0003,90.839 C256.0003,40.67 215.3303,0 165.1613,0" fill="#6AC08F"/>
  </g>
</svg>

<svg width="256" height="182" xmlns="http://www.w3.org/2000/svg" preserveAspectRatio="xMidYMid"><path d="m37.6 90.787-1.022.12L6.224 60.552h-.001A21.185 21.185 0 0 1 0 45.533 21.178 21.178 0 0 1 6.221 30.51c8.296-8.295 21.745-8.295 30.042.001l30.355 30.355-.219 1.55L38.426 90.69 66.5 118.866l.119 2.08-30.088 30.088c-8.297 8.297-21.745 8.299-30.043.002-8.295-8.296-8.295-21.745.003-30.042l30.087-30.087 1.022-.12Z" fill="#1DB2CA"/><path d="M127.953 122.204 96.657 90.909l30.645-30.645a48.96 48.96 0 0 1 3.243-3.629c8.788-11.3 7.31-20.6-.169-28.078-4.143-4.143-9.947-6.842-15.376-6.847 0 0-8.667-.041-15.573 6.435-.37.348-.763.677-1.128 1.042L66.617 60.869l-30.04 30.04 30.04 30.04 31.416 31.415a22.831 22.831 0 0 0 1.861 1.65c10.772 8.655 23.404 7.689 31.106-.012 7.702-7.704 7.333-19.667-1.279-29.82a48.718 48.718 0 0 1-1.768-1.978" fill="#2A3645"/><path d="M165.161 0c-23.172 0-44.313 8.681-60.36 22.962a91.544 91.544 0 0 0-5.374 5.181 21.18 21.18 0 0 1 13.871-5.181h.043a21.179 21.179 0 0 1 15 6.222c7.478 7.478 8.211 19.144 2.204 27.449a49.03 49.03 0 0 1 4.075-3.682c8.36-6.751 18.983-10.806 30.541-10.806 26.85 0 48.694 21.844 48.694 48.694s-21.844 48.694-48.694 48.694c-11.558 0-22.18-4.055-30.54-10.807a49.117 49.117 0 0 1-4.9-4.546c6.601 8.338 6.057 20.48-1.646 28.183-7.7 7.702-19.843 8.248-28.18 1.649a90.913 90.913 0 0 0 4.76 4.573l.065.059c16.058 14.324 37.231 23.033 60.441 23.033 50.17 0 90.84-40.669 90.84-90.838S215.33 0 165.16 0" fill="#6AC08F"/></svg>
